src/app/client/src/assets/images/sbt-right-flower.svg

<?xml version="1.0" encoding="UTF-8"?>
<svg width="288px" height="304px" viewBox="0 0 288 304" version="1.1" xmlns="http://www.w3.org/2000/svg" xmlns:xlink="http://www.w3.org/1999/xlink">
    <title>A844B99F-3DA6-49B7-BFFC-5B4E6042076C</title>
    <g id="Illustration-&amp;-colour-palette-" stroke="none" stroke-width="1" fill="none" fill-rule="evenodd">
        <g id="Textbooks" transform="translate(-1253.000000, -444.000000)" fill="#FFFFFF">
            <g id="Group-13" transform="translate(1253.000000, 444.000000)">
                <path d="M184.139831,114.166117 C184.139831,114.166117 177.052963,3.75779226 221.545163,10.1185397 C266.037363,16.4792872 287.857307,89.9062756 287.857307,89.9062756 L183.013047,303.772824 C183.013047,303.772824 4.5138785,296.753771 3.64143113,274.255758 C2.76512829,251.759072 90.8466655,238.575198 90.8466655,238.575198 C90.8466655,238.575198 3.07664038,212.860531 0.661138742,167.545122 C-1.75050743,122.228385 103.097844,151.150927 103.097844,151.150927 L103.013622,151.011045 C100.287433,146.468653 32.612962,32.6266085 80.6388809,4.4026187 C129.641065,-24.3960434 184.139831,114.166117 184.139831,114.166117 Z M99.5721273,66.6429976 L98.8719864,67.3570024 L205.659954,172.071 L205.785635,172.465566 C210.972695,189.0296 201.221389,197.331435 176.105512,197.497459 L175.331859,197.5 C149.411889,197.5 107.800372,188.948371 50.5231049,171.84208 L48.782635,171.321089 L48.4952721,172.278911 L51.9718181,173.317206 C108.441963,190.104755 149.553635,198.5 175.331859,198.5 C201.604128,198.5 212.221049,189.682299 206.743236,172.177194 L206.534318,171.528307 L99.5721273,66.6429976 Z" id="Combined-Shape"></path>
            </g>
        </g>
    </g>
</svg>

<svg xmlns="http://www.w3.org/2000/svg" width="288" height="304" xmlns:v="https://vecta.io/nano"><path d="M184.14 114.166S177.053 3.758 221.545 10.12s66.312 79.788 66.312 79.788L183.013 303.773s-178.5-7.02-179.372-29.517 87.205-35.68 87.205-35.68S3.077 212.86.66 167.545s102.437-16.394 102.437-16.394l-.084-.14c-2.726-4.542-70.4-118.384-22.375-146.608 49.002-28.8 103.5 109.763 103.5 109.763zM99.572 66.643l-.7.714L205.66 172.07l.126.395c5.187 16.564-4.564 24.866-29.68 25.032l-.774.003c-25.92 0-67.53-8.552-124.81-25.658l-1.74-.52-.287.958 3.477 1.038c56.47 16.788 97.582 25.183 123.36 25.183 26.272 0 36.89-8.818 31.41-26.323l-.21-.65L99.572 66.643z" fill="#fff" fill-rule="evenodd"/></svg>
